icons/text.svg

<?xml version="1.0" encoding="UTF-8"?>
<svg width="50" height="50" version="1.1" viewBox="0 0 50 50" xmlns="http://www.w3.org/2000/svg">
<path d="m8.75 5s-1.25 0-1.25 1.25v8.75s0 1.25 1.25 1.25h2.5c1.25 0 1.25-1.25 1.25-1.25v-1.25s0-2.5 2.5-2.5h3.75s2.5 0 2.5 2.5v21.25s0 3.75-3.75 3.75h-1.25s-1.25 0-1.25 1.25v3.75s0 1.25 1.25 1.25h17.5s1.25 0 1.25-1.25v-3.75s0-1.25-1.25-1.25h-1.25s-3.75 0-3.75-3.75v-21.25s0-2.5 2.5-2.5h3.75s2.5 0 2.5 2.5v1.25s0 1.25 1.25 1.25h2.5s1.25 0 1.25-1.25v-8.75s0-1.25-1.25-1.25z"/>
</svg>

<?xml version="1.0" encoding="UTF-8" standalone="no"?>
<svg
   xmlns:dc="http://purl.org/dc/elements/1.1/"
   xmlns:cc="http://creativecommons.org/ns#"
   xmlns:rdf="http://www.w3.org/1999/02/22-rdf-syntax-ns#"
   xmlns:svg="http://www.w3.org/2000/svg"
   xmlns="http://www.w3.org/2000/svg"
   id="svg4"
   viewBox="0 0 50 50"
   version="1.1"
   width="50"
   height="50">
  <metadata
     id="metadata10">
    <rdf:RDF>
      <cc:Work
         rdf:about="">
        <dc:format>image/svg+xml</dc:format>
        <dc:type
           rdf:resource="http://purl.org/dc/dcmitype/StillImage" />
        <dc:title></dc:title>
      </cc:Work>
    </rdf:RDF>
  </metadata>
  <defs
     id="defs8" />
  <path
     id="path1085"
     d="M 8.75,5 C 8.75,5 7.5,5 7.5,6.25 V 15 c 0,0 0,1.25 1.25,1.25 h 2.5 C 12.5,16.25 12.5,15 12.5,15 v -1.25 c 0,0 0,-2.5 2.5,-2.5 h 3.75 c 0,0 2.5,0 2.5,2.5 V 35 c 0,0 0,3.75 -3.75,3.75 h -1.25 c 0,0 -1.25,0 -1.25,1.25 v 3.75 c 0,0 0,1.25 1.25,1.25 h 17.5 c 0,0 1.25,0 1.25,-1.25 V 40 c 0,0 0,-1.25 -1.25,-1.25 H 32.5 c 0,0 -3.75,0 -3.75,-3.75 V 13.75 c 0,0 0,-2.5 2.5,-2.5 H 35 c 0,0 2.5,0 2.5,2.5 V 15 c 0,0 0,1.25 1.25,1.25 h 2.5 c 0,0 1.25,0 1.25,-1.25 V 6.25 c 0,0 0,-1.25 -1.25,-1.25 z" />
</svg>
